X:7214
T: The Pleasures of the Town
T: The Fair Maid of the Inn
O:england
S: Thompson 1777
N: abc version by Robert Bley-Vroman, Contradancers of Hawaii, October 15, 1996
N:   http://www.lll.hawaii.edu/contra/
M: C|
L: 1/4
K: Bb
Bdfd | B2 B2 | cdBc | A2 F2 | GBAc | Bdce | dfed | d2 c2 |
Bdfd | B2 B2 | cdBc | A2 GF | GBAc | Bddc | d2 c2 | B4 ||
|: DEFB | G2 G2 | FGAB | c2 c2 | Bcde | fbag | fedc | B2 B2 :|
